X: 62
T: Return From Fingal
R: hornpipe
M: 4/4
L: 1/8
K: Ador
|:e2 cB ABcd|e2cB A2 d2|dcBd g2d2|e2d2 efg2|
e2 cB ABcd|e2cB A2 d2|dcBd g2dc|B2A2 A4:|
|:b2a2 a2gf|e2 de g2d2|e2d2 g2d2|e2d2 efga|
b2a2 a2gf|e2 de g2d2|dcBd g2dc|B2A2 A4:|
